!!!COM: Felix Mendelssohn
!!!CNT: Deutsch
!!!TXO: Deutsch
!!!OTL: Es lauschte das Laub so dunkelgru2n
!!!LYR: C. Klingemann
!!!OPS: Op. 86
!!!ONM: No. 1
!!!ENC: Daniel Alt & Leigh VanHandel
!!!YOR: Sa2mmtliche Lieder fu2r eine Singstimme 
!!!YOR: Neu revidirt von Dr. L. Benda, Ausgabe fu2r mittlere Stimme
!!!YOR: Braunschweig. Henry Litolff's Verlag. Boston and New York: Arthur P. Schmidt.
!!!ODT: 1830/
**kern	**silbe
*staff1	*
=1-	=1
*clefG2	*
*k[]	*
*M6/8	*
2.r	.
=2	=2
2.r	.
=3	=3
4r	.
8r	.
4r	.
{8e	{Es
=4	=4
8f	lausch-
8a	-te
8b	das
8.dd	Laub
16cc	|
16b	so
16a	|
=5	=5
8g	dun-
8c	|
16g	-kel
16f	|
8d	gru2n
8r	.
8e	dort
=6	=6
4f	in
8g-	das
8gn	Fen-
8g	-ster
16b	hin-
16a	|
=7	=7
4g}	ein,}
8r	.
4r	.
{8e	{die
=8	=8
8f	Son-
8a	-ne
8b	dar-
8.dd	-in
16cc	|
16b	am
16a	|
=9	=9
8g	lieb-
8c	|
16g	-sten
16f	|
8d	schien,
8r	.
8e	dort
=10	=10
4f	san-
8g-	|
8gn	|
8a	-gen
8b	die
=11	=11
8dd	Vo2-
16cc	|
16b	|
16a	-ge-
16b	|
8g}	-lein.}
8r	.
{8g	{Sie
=12	=12
8b-	wa2h-
8a	-nen,
8g	es
8f	wer-
8e	-de
8d	so
=13	=13
8B-	e-
8A	|
16d-	-wig
16e	|
8g	wa2h-
8f}	-ren,}
{16a	{sie
16g	|
=14	=14
[2.g	spie-
=15	=15
4.g_	|
8g]	|
8ee	-len
8dd	und
=16	=16
8cc	mo2-
8b	-gen’s
8b-	nicht
8a	an-
8g	-ders
8f	be-
=17	=17
[4.e	-geh-
8e]	|
8d	|
16f	|
16e	|
=18	=18
4c}	-ren.}
8r	.
4r	.
8r	.
=19	=19
2.r	.
=20	=20
*k[b-e-a-]	*
4r	.
8r	.
4r	.
{8g	{Nun
=21	=21
8g	rausch-
8a-	-et
8g	das
4cc	Laub
8b-	so
=22	=22
8b-	gel-
8a-	|
8f	-blich
8e-	roth,
8d	|
8g	sieht
=23	=23
8a-	nicht
8cc	mehr
8dd	in’s
8.ff	Fen-
16ee-	|
16dd	-ster
16cc	hin-
=24	=24
4b-}	-ein,}
8r	.
4r	.
{8g	{das
=25	=25
8g	Vo2-
8a-	-gel-
8g	-gez
8.cc	wit-
16f	-scher
8en	ist
=26	=26
4a-	still
8f	und
8e-	todt,
8d	|
8e-	vor-
=27	=27
8g	-u2-
8f	-ber
8e-	der
8g	Son-
8f	|
8e-	-nen-
=28	=28
[4.b-	-schein!
4b-]}	|}
{8b-	{Wohl
=29	=29
8dd-	muss-
8cc	-te
8b-	das
8a-	freudi-
8g	|
8f	-ge
=30	=30
8d-	Gru2n
8c	|
16en	ver-
16g	|
8b-	-blass-
8a-}	-en,}
{16a-	{das
16g	|
=31	=31
[2.g	Fen-
=32	=32
4.g_	|
8g]	|
8ee-	-ster
8dd	im
=33	=33
8cc	Lau-
8bn	-be
8b-	ist
8b-	leer
8a-	und
8f	ver-
=34	=34
4.e-	-las-
4.d	|
=35	=35
4g}	-sen,}
8r	.
4r	.
{8g	{das
=36	=36
8g	Fen-
8ee-	-ster
8bn	im
8dd	Laub’
8cc	|
8g	ist
=37	=37
8b-	leer,
8a-	|
8g	ist
8b-	leer
8a-	und
8f	ver-
=38	=38
[4.e-	-las-
4e-]	|
8d	|
=39	=39
4c}	-sen.}
8r	.
4r	.
8r	.
==	==
*-	*-
